Numix-Light/scalable/devices/printer-symbolic.svg

<?xml version="1.0" encoding="UTF-8" standalone="no"?>
<svg
   xmlns:dc="http://purl.org/dc/elements/1.1/"
   xmlns:cc="http://creativecommons.org/ns#"
   xmlns:rdf="http://www.w3.org/1999/02/22-rdf-syntax-ns#"
   xmlns:svg="http://www.w3.org/2000/svg"
   xmlns="http://www.w3.org/2000/svg"
   xmlns:sodipodi="http://sodipodi.sourceforge.net/DTD/sodipodi-0.dtd"
   xmlns:inkscape="http://www.inkscape.org/namespaces/inkscape"
   width="16"
   viewBox="0 0 16 16"
   height="16"
   id="svg3933"
   version="1.1"
   inkscape:version="0.91 r"
   sodipodi:docname="printer-symbolic.svg">
  <metadata
     id="metadata3943">
    <rdf:RDF>
      <cc:Work
         rdf:about="">
        <dc:format>image/svg+xml</dc:format>
        <dc:type
           rdf:resource="http://purl.org/dc/dcmitype/StillImage" />
      </cc:Work>
    </rdf:RDF>
  </metadata>
  <defs
     id="defs3941" />
  <sodipodi:namedview
     pagecolor="#ffffff"
     bordercolor="#666666"
     borderopacity="1"
     objecttolerance="10"
     gridtolerance="10"
     guidetolerance="10"
     inkscape:pageopacity="0"
     inkscape:pageshadow="2"
     inkscape:window-width="640"
     inkscape:window-height="480"
     id="namedview3939" />
  <g
     transform="matrix(.08 0 0 .08 -2.24 14.4)"
     fill="#353535"
     id="g3935">
    <path
       d="M 53.000085,-172.5 53,-105 40.5,-105 C 28,-105 27.981688,-96.17875 28,-92.5 l 0,75 c 0,0 0,12.5 12.5,12.5 L 53,-5 53,7.5 c 0,0 0,12.5 7.500085,12.5 L 195.50001,20 C 203,20 203,7.5 203,7.5 l 0,-12.5 12.5,0 C 228,-5 228,-17.5 228,-17.5 l 0,-75 c 0,0 0,-12.5 -12.5,-12.5 l -12.5,0 0,-62.5 -12.5,-12.5 -129.999915,0 c -7.500085,0 -7.5,7.5 -7.5,7.5 z m 12.499915,5 87.5,0 -1e-5,37.5 37.50001,0 0,25 -125,0 z m -24.999975,75.000004 174.999985,0 0,49.999996 -174.999985,0 z M 209.25001,-30 c 2.76144,0 6.25,3.48875 6.25,6.25 0,2.76125 -3.48856,6.25 -6.25,6.25 -2.76144,0 -6.25,-3.48875 -6.25,-6.25 0,-2.76125 3.48856,-6.25 6.25,-6.25 z M 65.5,-30 l 125,0 1e-5,37.5 -124.999985,0 z"
       color="#000000"
       id="path3937" />
  </g>
</svg>

<svg xmlns="http://www.w3.org/2000/svg" viewBox="0 0 16 16">
 <g transform="matrix(.08 0 0 .08 -2.24 14.4)" style="fill:#353535">
  <path d="m 53 -172.5 0 67.5 -12.5 0 c -12.5 0 -12.518 8.821 -12.5 12.5 l 0 75 c 0 0 0 12.5 12.5 12.5 l 12.5 0 0 12.5 c 0 0 0 12.5 7.5 12.5 l 135 0 c 7.5 0 7.5 -12.5 7.5 -12.5 l 0 -12.5 12.5 0 c 12.5 0 12.5 -12.5 12.5 -12.5 l 0 -75 c 0 0 0 -12.5 -12.5 -12.5 l -12.5 0 0 -62.5 -12.5 -12.5 -130 0 c -7.5 0 -7.5 7.5 -7.5 7.5 z m 12.5 5 87.5 0 0 37.5 37.5 0 0 25 -125 0 z m -25 75 175 0 0 50 -175 0 z m 168.75 62.5 c 2.761 0 6.25 3.489 6.25 6.25 0 2.761 -3.489 6.25 -6.25 6.25 -2.761 0 -6.25 -3.489 -6.25 -6.25 0 -2.761 3.489 -6.25 6.25 -6.25 z m -143.75 0 l 125 0 0 37.5 -125 0 z" style="color:#000"/>
 </g>
</svg>
